crossway-logistics/img/logo-icon.svg

<svg width="755" height="755" fill="none" xmlns="http://www.w3.org/2000/svg"><path d="M468.136 386.553c-2.759 0-4.598-.92-6.438-2.759L306.266 228.361c-19.314-19.314-29.431-44.146-29.431-70.818 0-55.183 45.066-100.25 100.249-100.25 55.183 0 100.249 45.067 100.249 100.25 0 26.672-10.116 51.504-29.43 70.818-3.679 3.679-9.198 3.679-12.877 0l-32.19-32.19c-1.839-1.839-2.759-3.679-2.759-6.438s.92-4.598 2.759-6.438c6.438-6.438 11.037-15.635 11.037-25.752 0-20.234-16.555-36.789-36.789-36.789s-35.869 16.555-36.788 35.869c0 10.117 3.678 18.395 11.036 25.753l155.432 155.432c1.84 1.839 2.76 3.679 2.76 6.438s-.92 4.598-2.76 6.438l-32.19 32.19c-1.839 2.759-3.679 3.679-6.438 3.679zm-172.907-229.01c0 22.073 8.278 42.307 23.913 57.942L468.136 364.48l19.314-19.314-148.994-148.995c-10.117-10.117-15.635-23.912-15.635-38.628 0-30.35 24.832-54.263 55.183-54.263s55.183 24.832 55.183 55.183c0 11.956-3.679 22.073-10.117 31.27l19.314 19.314c11.957-14.715 17.475-32.19 17.475-51.504 0-45.066-36.789-81.855-81.855-81.855-45.986 0-82.775 36.789-82.775 81.855z" fill="#3C3C3C"/><path d="M409.275 509.795c-2.76 0-4.599-.92-6.439-2.759l-32.19-32.19c-1.839-1.84-2.759-3.679-2.759-6.438s.92-4.599 2.759-6.438l155.433-155.433c18.394-18.394 44.146-29.431 69.898-29.431h.92c55.183 0 100.249 45.067 100.249 100.25S652.08 477.605 596.897 477.605c-26.672 0-51.504-10.117-70.818-29.431-3.679-3.679-3.679-9.197 0-12.876l32.19-32.19c1.839-1.84 3.679-2.759 6.438-2.759s4.598.919 6.438 2.759c6.438 6.438 15.635 11.036 25.752 11.036 20.234 0 36.789-16.554 36.789-36.788 0-20.234-16.555-36.789-35.869-36.789-10.117 0-18.395 3.679-25.752 11.037L415.713 507.036c-1.84 1.839-3.679 2.759-6.438 2.759zm-19.315-41.387l19.315 19.314 148.994-148.994c10.117-10.117 23.912-15.636 38.628-15.636 30.351 0 54.263 24.833 54.263 55.183 0 30.351-24.832 55.183-55.183 55.183-11.956 0-22.073-3.678-31.27-10.116l-18.395 18.394c14.716 11.956 32.191 17.475 50.585 17.475 45.066 0 81.855-36.789 81.855-81.855s-36.789-81.855-80.935-81.855h-.92c-22.073 0-42.307 8.277-57.942 23.912L389.96 468.408zm-232.688 9.197c-55.183 0-100.25-45.066-100.25-100.249 0-55.183 45.067-100.25 100.25-100.25 26.672 0 51.504 10.117 70.818 29.431 1.839 1.84 2.759 3.679 2.759 6.438 0 2.76-.92 4.599-2.759 6.438l-32.19 32.191c-3.679 3.678-9.197 3.678-12.876 0-6.438-6.438-15.635-11.037-25.752-11.037-20.234 0-36.789 16.555-36.789 35.869 0 20.234 16.555 36.789 35.869 36.789 10.117 0 18.394-3.679 25.752-11.037l155.432-155.432c3.679-3.679 9.198-3.679 12.876 0l32.191 32.19c3.678 3.679 3.678 9.197 0 12.876L228.09 448.174c-18.394 19.314-44.146 29.431-70.818 29.431zm0-182.104c-45.066 0-81.855 36.789-81.855 81.855s36.789 81.855 80.935 81.855h.92c22.073 0 42.307-8.278 57.942-23.913l148.994-148.994-19.314-19.314L195.9 415.984c-10.117 10.117-23.913 15.635-38.628 15.635-30.351 0-54.264-24.832-54.264-55.183s24.833-54.263 55.183-54.263c11.957 0 22.074 3.678 31.271 10.116l19.314-19.314c-14.716-11.036-33.11-17.474-51.504-17.474z" fill="#3C3C3C"/><path d="M377.084 754.44c-86.453 0-157.271-70.818-157.271-157.272 0-34.029 11.036-67.139 31.27-93.811-26.672 20.234-59.782 31.271-93.811 31.271-42.307 0-80.935-16.555-111.286-45.986C16.555 459.211 0 419.663 0 377.356c0-86.454 70.818-157.272 157.272-157.272 34.029 0 67.139 11.037 93.811 31.27-20.234-26.671-31.27-59.781-31.27-93.811C219.813 71.09 290.631.271 377.084.271c42.307 0 81.855 16.555 111.286 45.986 29.431 29.431 45.986 68.979 45.986 111.286 0 34.03-11.037 67.14-31.27 93.811 26.672-20.233 58.862-31.27 92.891-31.27h.92c86.453 0 157.272 70.818 157.272 157.272 0 42.307-16.555 80.935-45.986 111.286-29.431 30.35-68.979 45.986-111.286 45.986-34.03 0-67.139-11.037-93.811-31.271 20.233 26.672 31.27 59.782 31.27 93.811 0 42.307-16.555 80.936-45.986 111.286-30.351 29.431-68.979 45.986-111.286 45.986zM253.842 480.364c2.759 0 4.599.92 6.438 2.759l11.037 11.037c3.679 3.679 3.679 9.197.919 12.876-21.153 24.832-33.109 57.023-33.109 90.132-.92 76.337 61.621 138.878 137.957 138.878 76.337 0 138.878-62.541 138.878-138.878 0-33.109-11.957-64.38-33.11-90.132-2.759-3.679-2.759-9.197.92-12.876l11.036-11.037c3.679-3.678 9.197-3.678 12.876-.919 24.833 21.153 57.023 33.109 90.133 33.109 36.788 0 71.738-14.715 98.409-40.467 24.833-25.752 39.548-60.701 39.548-97.49 0-76.337-61.621-137.958-137.957-138.878h-.92c-33.11 0-64.38 11.957-90.132 33.11-3.679 2.759-9.198 2.759-12.876-.919l-11.037-11.037c-3.679-3.679-3.679-9.197-.92-12.876 21.154-24.833 33.11-57.023 33.11-90.132 0-36.789-14.715-71.739-40.468-98.41-25.752-24.833-60.701-39.548-97.49-39.548-76.336 0-138.877 62.54-138.877 138.877 0 33.11 11.956 65.3 33.11 90.133 2.759 3.678 2.759 9.197-.92 12.876l-11.037 11.036c-3.678 3.679-9.197 3.679-12.876.92-24.832-21.154-57.022-33.11-90.132-33.11-75.417-.92-137.958 61.621-137.958 137.958 0 76.336 62.541 138.877 138.878 138.877 33.11 0 64.38-11.956 90.132-33.11 1.84-1.839 3.679-2.759 6.438-2.759z" fill="#3C3C3C"/><path d="M377.084 697.418c-55.183 0-100.249-45.066-100.249-100.25 0-26.671 10.117-52.424 29.431-70.818 3.679-3.679 9.197-3.679 12.876 0l32.19 32.19c3.679 3.679 3.679 9.197 0 12.876-6.438 6.438-11.036 15.636-11.036 25.752 0 20.234 16.555 36.789 36.788 36.789 20.234 0 36.789-16.555 36.789-35.869 0-10.117-3.679-18.394-11.037-25.752L247.404 415.984c-3.679-3.679-3.679-9.197 0-12.876l32.19-32.19c3.679-3.679 9.197-3.679 12.876 0L447.903 526.35c18.394 18.394 29.431 44.147 29.431 69.899v.919c0 55.184-45.067 100.25-100.25 100.25zm-64.38-150.834c-11.956 14.715-17.475 32.19-17.475 50.584 0 45.067 36.789 81.855 81.855 81.855 45.067 0 81.855-36.788 81.855-80.935v-.92c0-22.073-8.277-42.307-23.912-57.942L286.032 390.232l-19.314 19.314L415.713 558.54c10.116 10.117 15.635 23.913 15.635 38.628 0 30.351-24.833 54.264-55.183 54.264-30.351 0-55.183-24.833-55.183-55.183 0-11.957 3.678-22.073 10.116-31.271l-18.394-18.394z" fill="#3C3C3C"/><path d="M377.084 477.605c-2.759 0-4.598-.92-6.438-2.759l-91.052-91.052c-3.679-3.679-3.679-9.197 0-12.876l91.052-91.052c1.84-1.84 3.679-2.76 6.438-2.76s4.599.92 6.438 2.76l91.052 91.052c1.84 1.839 2.759 3.679 2.759 6.438s-.919 4.598-2.759 6.438l-91.052 91.052c-1.839 1.839-3.679 2.759-6.438 2.759zm-78.176-100.249l78.176 78.176 78.176-78.176-78.176-78.176-78.176 78.176z" fill="#3C3C3C"/></svg>

<svg width="755" height="755" viewBox="0 0 755 755" fill="none" xmlns="http://www.w3.org/2000/svg">
<path d="M468.136 386.553C465.377 386.553 463.538 385.633 461.698 383.794L306.266 228.361C286.952 209.047 276.835 184.215 276.835 157.543C276.835 102.36 321.901 57.2939 377.084 57.2939C432.267 57.2939 477.333 102.36 477.333 157.543C477.333 184.215 467.217 209.047 447.903 228.361C444.224 232.04 438.705 232.04 435.026 228.361L402.836 196.171C400.997 194.332 400.077 192.492 400.077 189.733C400.077 186.974 400.997 185.135 402.836 183.295C409.274 176.857 413.873 167.66 413.873 157.543C413.873 137.309 397.318 120.754 377.084 120.754C356.85 120.754 341.215 137.309 340.296 156.623C340.296 166.74 343.974 175.018 351.332 182.376L506.764 337.808C508.604 339.647 509.524 341.487 509.524 344.246C509.524 347.005 508.604 348.844 506.764 350.684L474.574 382.874C472.735 385.633 470.895 386.553 468.136 386.553ZM295.229 157.543C295.229 179.616 303.507 199.85 319.142 215.485L468.136 364.48L487.45 345.166L338.456 196.171C328.339 186.054 322.821 172.259 322.821 157.543C322.821 127.193 347.653 103.28 378.004 103.28C408.355 103.28 433.187 128.112 433.187 158.463C433.187 170.419 429.508 180.536 423.07 189.733L442.384 209.047C454.341 194.332 459.859 176.857 459.859 157.543C459.859 112.477 423.07 75.6883 378.004 75.6883C332.018 75.6883 295.229 112.477 295.229 157.543Z" fill="#3C3C3C"/>
<path d="M409.275 509.795C406.515 509.795 404.676 508.875 402.836 507.036L370.646 474.846C368.807 473.006 367.887 471.167 367.887 468.408C367.887 465.649 368.807 463.809 370.646 461.97L526.079 306.537C544.473 288.143 570.225 277.106 595.977 277.106C595.977 277.106 595.977 277.106 596.897 277.106C652.08 277.106 697.146 322.173 697.146 377.356C697.146 432.539 652.08 477.605 596.897 477.605C570.225 477.605 545.393 467.488 526.079 448.174C522.4 444.495 522.4 438.977 526.079 435.298L558.269 403.108C560.108 401.268 561.948 400.349 564.707 400.349C567.466 400.349 569.305 401.268 571.145 403.108C577.583 409.546 586.78 414.144 596.897 414.144C617.131 414.144 633.686 397.59 633.686 377.356C633.686 357.122 617.131 340.567 597.817 340.567C587.7 340.567 579.422 344.246 572.065 351.604L415.713 507.036C413.873 508.875 412.034 509.795 409.275 509.795ZM389.96 468.408L409.275 487.722L558.269 338.728C568.386 328.611 582.181 323.092 596.897 323.092C627.248 323.092 651.16 347.925 651.16 378.275C651.16 408.626 626.328 433.458 595.977 433.458C584.021 433.458 573.904 429.78 564.707 423.342L546.312 441.736C561.028 453.692 578.503 459.211 596.897 459.211C641.963 459.211 678.752 422.422 678.752 377.356C678.752 332.29 641.963 295.501 597.817 295.501C597.817 295.501 597.817 295.501 596.897 295.501C574.824 295.501 554.59 303.778 538.955 319.413L389.96 468.408Z" fill="#3C3C3C"/>
<path d="M157.272 477.605C102.089 477.605 57.0225 432.539 57.0225 377.356C57.0225 322.173 102.089 277.106 157.272 277.106C183.944 277.106 208.776 287.223 228.09 306.537C229.929 308.377 230.849 310.216 230.849 312.975C230.849 315.735 229.929 317.574 228.09 319.413L195.9 351.604C192.221 355.282 186.703 355.282 183.024 351.604C176.586 345.166 167.389 340.567 157.272 340.567C137.038 340.567 120.483 357.122 120.483 376.436C120.483 396.67 137.038 413.225 156.352 413.225C166.469 413.225 174.746 409.546 182.104 402.188L337.536 246.756C341.215 243.077 346.734 243.077 350.412 246.756L382.603 278.946C386.281 282.625 386.281 288.143 382.603 291.822L228.09 448.174C209.696 467.488 183.944 477.605 157.272 477.605ZM157.272 295.501C112.206 295.501 75.4168 332.29 75.4168 377.356C75.4168 422.422 112.206 459.211 156.352 459.211C156.352 459.211 156.352 459.211 157.272 459.211C179.345 459.211 199.579 450.933 215.214 435.298L364.208 286.304L344.894 266.99L195.9 415.984C185.783 426.101 171.987 431.619 157.272 431.619C126.921 431.619 103.008 406.787 103.008 376.436C103.008 346.085 127.841 322.173 158.191 322.173C170.148 322.173 180.265 325.851 189.462 332.289L208.776 312.975C194.06 301.939 175.666 295.501 157.272 295.501Z" fill="#3C3C3C"/>
<path d="M377.084 754.44C290.631 754.44 219.813 683.622 219.813 597.168C219.813 563.139 230.849 530.029 251.083 503.357C224.411 523.591 191.301 534.628 157.272 534.628C114.965 534.628 76.3366 518.073 45.9859 488.642C16.5549 459.211 0 419.663 0 377.356C0 290.902 70.8183 220.084 157.272 220.084C191.301 220.084 224.411 231.121 251.083 251.354C230.849 224.683 219.813 191.573 219.813 157.543C219.813 71.0898 290.631 0.271484 377.084 0.271484C419.391 0.271484 458.939 16.8264 488.37 46.2574C517.801 75.6884 534.356 115.236 534.356 157.543C534.356 191.573 523.319 224.683 503.086 251.354C529.758 231.121 561.948 220.084 595.977 220.084H596.897C683.35 220.084 754.169 290.902 754.169 377.356C754.169 419.663 737.614 458.291 708.183 488.642C678.752 518.992 639.204 534.628 596.897 534.628C562.867 534.628 529.758 523.591 503.086 503.357C523.319 530.029 534.356 563.139 534.356 597.168C534.356 639.475 517.801 678.104 488.37 708.454C458.019 737.885 419.391 754.44 377.084 754.44ZM253.842 480.364C256.601 480.364 258.441 481.284 260.28 483.123L271.317 494.16C274.996 497.839 274.996 503.357 272.236 507.036C251.083 531.868 239.127 564.059 239.127 597.168C238.207 673.505 300.748 736.046 377.084 736.046C453.421 736.046 515.962 673.505 515.962 597.168C515.962 564.059 504.005 532.788 482.852 507.036C480.093 503.357 480.093 497.839 483.772 494.16L494.808 483.123C498.487 479.445 504.005 479.445 507.684 482.204C532.517 503.357 564.707 515.313 597.817 515.313C634.605 515.313 669.555 500.598 696.226 474.846C721.059 449.094 735.774 414.145 735.774 377.356C735.774 301.019 674.153 239.398 597.817 238.478H596.897C563.787 238.478 532.517 250.435 506.765 271.588C503.086 274.347 497.567 274.347 493.889 270.669L482.852 259.632C479.173 255.953 479.173 250.435 481.932 246.756C503.086 221.923 515.042 189.733 515.042 156.624C515.042 119.835 500.327 84.8855 474.574 58.2137C448.822 33.3813 413.873 18.6658 377.084 18.6658C300.748 18.6658 238.207 81.2067 238.207 157.543C238.207 190.653 250.163 222.843 271.317 247.676C274.076 251.354 274.076 256.873 270.397 260.552L259.36 271.588C255.682 275.267 250.163 275.267 246.484 272.508C221.652 251.354 189.462 239.398 156.352 239.398C80.9352 238.478 18.3944 301.019 18.3944 377.356C18.3944 453.692 80.9352 516.233 157.272 516.233C190.382 516.233 221.652 504.277 247.404 483.123C249.244 481.284 251.083 480.364 253.842 480.364Z" fill="#3C3C3C"/>
<path d="M377.084 697.418C321.901 697.418 276.835 652.352 276.835 597.168C276.835 570.497 286.952 544.744 306.266 526.35C309.945 522.671 315.463 522.671 319.142 526.35L351.332 558.54C355.011 562.219 355.011 567.737 351.332 571.416C344.894 577.854 340.296 587.052 340.296 597.168C340.296 617.402 356.851 633.957 377.084 633.957C397.318 633.957 413.873 617.402 413.873 598.088C413.873 587.971 410.194 579.694 402.836 572.336L247.404 415.984C243.725 412.305 243.725 406.787 247.404 403.108L279.594 370.918C283.273 367.239 288.791 367.239 292.47 370.918L447.903 526.35C466.297 544.744 477.334 570.497 477.334 596.249C477.334 596.249 477.334 596.249 477.334 597.168C477.334 652.352 432.267 697.418 377.084 697.418ZM312.704 546.584C300.748 561.299 295.229 578.774 295.229 597.168C295.229 642.235 332.018 679.023 377.084 679.023C422.151 679.023 458.939 642.235 458.939 598.088C458.939 598.088 458.939 598.088 458.939 597.168C458.939 575.095 450.662 554.861 435.027 539.226L286.032 390.232L266.718 409.546L415.713 558.54C425.829 568.657 431.348 582.453 431.348 597.168C431.348 627.519 406.515 651.432 376.165 651.432C345.814 651.432 320.982 626.599 320.982 596.249C320.982 584.292 324.66 574.176 331.098 564.978L312.704 546.584Z" fill="#3C3C3C"/>
<path d="M377.084 477.605C374.325 477.605 372.486 476.685 370.646 474.846L279.594 383.794C275.915 380.115 275.915 374.597 279.594 370.918L370.646 279.866C372.486 278.026 374.325 277.106 377.084 277.106C379.843 277.106 381.683 278.026 383.522 279.866L474.574 370.918C476.414 372.757 477.333 374.597 477.333 377.356C477.333 380.115 476.414 381.954 474.574 383.794L383.522 474.846C381.683 476.685 379.843 477.605 377.084 477.605ZM298.908 377.356L377.084 455.532L455.26 377.356L377.084 299.18L298.908 377.356Z" fill="#3C3C3C"/>
</svg>
